X:123
T:Moose-
R:reel
C:Bruce Osborne  --  May 1991
Z:abc by bosborne@kos.net
M:2/4
L:1/8
K:A
E/D/|C/E/A,/C/ E/A,/C/E/|D/F/A/F/ EA/B/|c/e/A/c/ f/e/c/A/|B/c/B/A/ BE/D/|\
C/E/A,/C/ E/A,/C/E/|D/F/A/F/ EA/B/|c/e/A/c/ f/e/c/A/|E/G/B/c/ A:|
|:c/d/|ee/f/ e/c/B/A/|d/c/d/e/ f/a/g/f/|e/c/A/c/ e/c/A/c/|B/c/B/A/ Bc/d/|\
ee/f/ e/c/B/A/|d/c/d/e/ f/a/g/f/|e/c/A/c/ d/B/G/B/|A/c/B/G/ A:|
